dist/img/logo.svg

<?xml version="1.0" encoding="UTF-8"?>
<svg width="251px" height="26px" viewBox="0 0 251 26" version="1.1" xmlns="http://www.w3.org/2000/svg" xmlns:xlink="http://www.w3.org/1999/xlink">
    <!-- Generator: sketchtool 52.5 (67469) - http://www.bohemiancoding.com/sketch -->
    <title>A18E1457-E4AF-40EA-9758-CFDD73A3F519</title>
    <desc>Created with sketchtool.</desc>
    <defs>
        <polygon id="path-1" points="0.682509581 24.5142857 22.4917042 24.5142857 22.4917042 0.0967942857 0.682509581 0.0967942857 0.682509581 24.5142857"></polygon>
        <polygon id="path-3" points="19.1534042 19.89468 19.1534042 0.0967942857 0.148646108 0.0967942857 0.148646108 19.89468 19.1534042 19.89468"></polygon>
        <polygon id="path-5" points="4.07387343e-20 0.403222857 4.07387343e-20 21.0501943 38.4259958 21.0501943 38.4259958 0.403222857 0 0.403222857"></polygon>
    </defs>
    <g id="Page-1" stroke="none" stroke-width="1" fill="none" fill-rule="evenodd">
        <g id="desktop" transform="translate(-152.000000, -164.000000)">
            <g id="Page-1" transform="translate(152.000000, 164.000000)">
                <path d="M80.2575506,11.56688 L80.2575506,5.62625143 L83.5122841,5.62625143 C86.0936763,5.62625143 87.3832452,6.59419429 87.3832452,8.57465143 C87.3832452,10.5543657 86.0936763,11.56688 83.5566225,11.56688 L80.2575506,11.56688 Z M75.138353,1.22630857 L75.138353,21.0249371 L80.2575506,21.0249371 L80.2575506,15.6132229 L84.0015087,15.6132229 C90.2765087,15.6132229 92.8143141,12.7539657 92.8143141,8.74996571 C92.8143141,4.48225143 89.9653889,1.22630857 83.6002093,1.22630857 L75.138353,1.22630857 Z" id="Fill-1" fill="#80BA27"></path>
                <path d="M100.183945,9.27843429 L110.020289,9.27843429 C110.064627,6.81437714 108.283579,4.96540571 105.435406,4.96540571 C102.542894,4.96540571 100.762597,6.41917714 100.183945,9.27843429 L100.183945,9.27843429 Z M113.491454,19.0447771 C111.534555,20.67312 108.99675,21.5088343 105.835954,21.5088343 C102.586481,21.5088343 100.005088,20.5416343 98.0031003,18.6488343 C96.0439476,16.75752 95.064747,14.2496343 95.064747,11.1266629 C95.064747,8.17826286 96.0439476,5.71494857 97.958762,3.73449143 C99.8728249,1.75477714 102.453466,0.743005714 105.657849,0.743005714 C108.283579,0.743005714 110.553852,1.62254857 112.378487,3.33854857 C114.203121,5.05454857 115.137984,7.25489143 115.137984,9.93809143 C115.137984,11.0382629 115.048555,11.9623771 114.826864,12.6666057 L100.361298,12.6666057 C100.762597,15.6127771 103.165133,17.2849486 106.370268,17.2849486 C108.639789,17.2849486 110.509513,16.6698629 112.023028,15.4812914 L113.491454,19.0447771 Z" id="Fill-3" fill="#80BA27"></path>
                <g id="Group-7" transform="translate(117.233533, 1.129886)">
                    <mask id="mask-2" fill="white">
                        <use xlink:href="#path-1"></use>
                    </mask>
                    <g id="Clip-6"></g>
                    <polygon id="Fill-5" fill="#FEFEFE" mask="url(#mask-2)" points="0.682509581 19.89468 0.682509581 0.0967942857 5.80170719 0.0967942857 5.80170719 15.1871943 14.0358599 15.1871943 14.0358599 0.0967942857 19.1535545 0.0967942857 19.1535545 15.1871943 22.4917042 15.1871943 22.4917042 24.5145086 17.6851293 24.5145086 17.6851293 19.89468"></polygon>
                </g>
                <polygon id="Fill-8" fill="#FEFEFE" points="147.484218 21.0245657 142.365021 21.0245657 142.365021 1.22668 147.484218 1.22668 147.484218 13.7653657 156.830587 1.22668 161.949033 1.22668 161.949033 21.0245657 156.830587 21.0245657 156.830587 8.48588"></polygon>
                <path d="M184.255493,1.22638286 L176.556406,10.6420971 L185.189604,21.0242686 L178.513304,21.0242686 L170.591023,11.03804 L177.800885,1.22638286 L184.255493,1.22638286 Z M165.295223,21.0242686 L170.414421,21.0242686 L170.414421,1.22638286 L165.295223,1.22638286 L165.295223,21.0242686 Z" id="Fill-10" fill="#FEFEFE"></path>
                <path d="M201.52309,21.0245657 L201.52309,6.28628 L196.22654,6.28628 L196.092773,8.39748 C194.935468,19.2216514 192.620857,21.3774229 187.057525,21.4205086 L186.611887,16.4923943 C187.279968,16.5377086 187.85862,16.3616514 188.438025,15.9649657 C189.638917,15.0854229 190.84056,12.1385086 191.15168,7.38719429 L191.463551,1.22668 L206.640785,1.22668 L206.640785,21.0245657 L201.52309,21.0245657 Z" id="Fill-12" fill="#FEFEFE"></path>
                <path d="M214.299967,9.27843429 L224.136312,9.27843429 C224.179899,6.81437714 222.400354,4.96540571 219.550677,4.96540571 C216.658916,4.96540571 214.879372,6.41917714 214.299967,9.27843429 L214.299967,9.27843429 Z M227.608228,19.0447771 C225.649827,20.67312 223.112773,21.5088343 219.951976,21.5088343 C216.702503,21.5088343 214.121111,20.5416343 212.119123,18.6488343 C210.160722,16.75752 209.181521,14.2496343 209.181521,11.1266629 C209.181521,8.17826286 210.160722,5.71494857 212.074785,3.73449143 C213.988096,1.75477714 216.569488,0.743005714 219.77312,0.743005714 C222.400354,0.743005714 224.670626,1.62254857 226.495261,3.33854857 C228.319896,5.05454857 229.254006,7.25489143 229.254006,9.93809143 C229.254006,11.0382629 229.16533,11.9623771 228.942135,12.6666057 L214.477321,12.6666057 C214.879372,15.6127771 217.281156,17.2849486 220.485539,17.2849486 C222.755812,17.2849486 224.624785,16.6698629 226.139051,15.4812914 L227.608228,19.0447771 Z" id="Fill-14" fill="#FEFEFE"></path>
                <g id="Group-18" transform="translate(231.461078, 1.129886)">
                    <mask id="mask-4" fill="white">
                        <use xlink:href="#path-3"></use>
                    </mask>
                    <g id="Clip-17"></g>
                    <polygon id="Fill-16" fill="#FEFEFE" mask="url(#mask-4)" points="14.0355593 19.89468 14.0355593 12.3279371 5.26709222 12.3279371 5.26709222 19.89468 0.148646108 19.89468 0.148646108 0.0967942857 5.26709222 0.0967942857 5.26709222 7.57588 14.0355593 7.57588 14.0355593 0.0967942857 19.1540054 0.0967942857 19.1540054 19.89468"></polygon>
                </g>
                <g id="Group-21" transform="translate(0.000000, 0.387029)">
                    <mask id="mask-6" fill="white">
                        <use xlink:href="#path-5"></use>
                    </mask>
                    <g id="Clip-20"></g>
                    <path d="M34.3957174,12.6811657 L33.8809419,13.3096229 L33.852385,13.3512229 C33.0302473,14.4298514 31.7534539,15.1140229 30.2932952,15.1140229 C29.0149988,15.1140229 27.8892563,14.5917943 27.0671186,13.7434514 L18.8299599,4.52682286 L18.1265587,3.74162286 L18.0709479,3.68145143 L18.0506575,3.65396571 L18.0416395,3.64653714 C16.1448611,1.65716571 13.4251934,0.403222857 10.4432533,0.403222857 C4.67175629,0.409165714 0.00270538922,5.02750857 -0.000300598802,10.7274514 C0.00270538922,16.4303657 4.67175629,21.0472229 10.4432533,21.0501943 C13.7423251,21.0501943 16.7002174,19.5265943 18.6030078,17.16208 L14.5719778,12.6492229 L14.0361605,13.3096229 L14.0023431,13.3512229 C13.1824599,14.4298514 11.9056665,15.1140229 10.4432533,15.1140229 C7.99262156,15.1103086 6.00866946,13.1461943 6.00340898,10.7274514 C6.00866946,8.30722286 7.99262156,6.34088 10.4432533,6.34088 C11.7177922,6.34088 12.8382743,6.85345143 13.657406,7.70179429 L14.3314988,8.45579429 L22.6182563,17.7251657 L22.6640976,17.7749371 L22.684388,17.7972229 L22.696412,17.80688 C24.5909359,19.7999657 27.3075976,21.0501943 30.2932952,21.0501943 L30.2963012,21.0501943 C33.5788401,21.0501943 36.5239569,19.53848 38.4259958,17.1947657 L34.3957174,12.6811657 Z" id="Fill-19" fill="#80BA27" mask="url(#mask-6)"></path>
                </g>
                <path d="M26.133609,9.16091429 L26.6468814,8.53022857 L26.6754383,8.48937143 C27.4983275,7.41445714 28.772115,6.72805714 30.2352796,6.72805714 C31.513576,6.72805714 32.6400701,7.24731429 33.4592018,8.09714286 L41.7008695,17.3152571 L42.4027677,18.1041714 L42.4583784,18.1621143 L42.4801719,18.1836571 L42.4906928,18.1940571 C44.3822108,20.1864 47.099624,21.4366286 50.0868246,21.4366286 C55.8560671,21.4336571 60.5273725,16.8190286 60.5296269,11.1138857 C60.5273725,5.41468571 55.8560671,0.7956 50.0868246,0.791885714 C46.7907587,0.7904 43.830612,2.3192 41.9240641,4.68222857 L45.9573485,9.19508571 L46.4976749,8.53022857 L46.5269832,8.48937143 C47.3498725,7.41445714 48.6266659,6.72805714 50.0868246,6.72805714 C52.5374563,6.72805714 54.5214084,8.6944 54.5259174,11.1138857 C54.5214084,13.5378286 52.5374563,15.4974857 50.0868246,15.5012 C48.8137886,15.5012 47.6910521,14.9856571 46.8711689,14.1410286 L46.1963246,13.3855429 L37.9125731,4.11617143 L37.8674832,4.06862857 L37.8434353,4.0456 L37.8314114,4.03371429 C35.9398934,2.04434286 33.2217287,0.7904 30.2352796,0.791885714 C26.9527407,0.791885714 24.004618,2.30582857 22.1018275,4.6488 L26.133609,9.16091429 Z" id="Fill-22" fill="#FEFEFE"></path>
            </g>
        </g>
    </g>
</svg>

<svg width="251" height="26" viewBox="0 0 251 26" xmlns="http://www.w3.org/2000/svg" xmlns:xlink="http://www.w3.org/1999/xlink"><defs><path id="path-1" d="M.683 24.514h21.809V.097H.682v24.417z"/><path id="path-3" d="M19.153 19.895V.097H.15v19.798h19.004z"/><path id="path-5" d="M0 .403V21.05h38.426V.403H0z"/></defs><g id="Page-1" stroke="none" stroke-width="1" fill="none" fill-rule="evenodd"><g id="desktop" transform="translate(-152 -164)"><g id="Page-1" transform="translate(152 164)"><path d="M80.258 11.567v-5.94h3.254c2.582 0 3.871.967 3.871 2.948 0 1.98-1.29 2.992-3.826 2.992h-3.3zm-5.12-10.34v19.798h5.12v-5.412h3.744c6.275 0 8.812-2.859 8.812-6.863 0-4.268-2.849-7.524-9.214-7.524h-8.462z" id="Fill-1" fill="#80BA27"/><path d="M100.184 9.278h9.836c.045-2.464-1.736-4.313-4.585-4.313-2.892 0-4.672 1.454-5.251 4.313zm13.307 9.767c-1.956 1.628-4.494 2.464-7.655 2.464-3.25 0-5.83-.967-7.833-2.86-1.96-1.891-2.938-4.4-2.938-7.522 0-2.949.979-5.412 2.894-7.393 1.914-1.98 4.494-2.991 7.699-2.991 2.626 0 4.896.88 6.72 2.596 1.825 1.716 2.76 3.916 2.76 6.6 0 1.1-.09 2.023-.311 2.728H100.36c.402 2.946 2.804 4.618 6.01 4.618 2.269 0 4.139-.615 5.652-1.804l1.468 3.564z" id="Fill-3" fill="#80BA27"/><g id="Group-7" transform="translate(117.234 1.13)"><mask id="mask-2" fill="#fff"><use xlink:href="#path-1"/></mask><path id="Fill-5" fill="#FEFEFE" mask="url(#mask-2)" d="M.683 19.895V.097h5.119v15.09h8.234V.097h5.118v15.09h3.338v9.328h-4.807v-4.62z"/></g><path id="Fill-8" fill="#FEFEFE" d="M147.484 21.025h-5.119V1.227h5.12v12.538l9.346-12.538h5.118v19.798h-5.118V8.485z"/><path d="M184.255 1.226l-7.699 9.416 8.634 10.382h-6.677l-7.922-9.986 7.21-9.812h6.454zm-18.96 19.798h5.12V1.226h-5.12v19.798z" id="Fill-10" fill="#FEFEFE"/><path d="M201.523 21.025V6.286h-5.296l-.134 2.111c-1.158 10.825-3.472 12.98-9.035 13.024l-.446-4.929c.668.046 1.247-.13 1.826-.527 1.2-.88 2.403-3.826 2.714-8.578l.312-6.16h15.177v19.798h-5.118z" id="Fill-12" fill="#FEFEFE"/><path d="M214.3 9.278h9.836c.044-2.464-1.736-4.313-4.585-4.313-2.892 0-4.672 1.454-5.251 4.313zm13.308 9.767c-1.958 1.628-4.495 2.464-7.656 2.464-3.25 0-5.83-.967-7.833-2.86-1.958-1.891-2.937-4.4-2.937-7.522 0-2.949.979-5.412 2.893-7.393 1.913-1.98 4.494-2.991 7.698-2.991 2.627 0 4.898.88 6.722 2.596 1.825 1.716 2.759 3.916 2.759 6.6 0 1.1-.089 2.023-.312 2.728h-14.465c.402 2.946 2.804 4.618 6.009 4.618 2.27 0 4.139-.615 5.653-1.804l1.47 3.564z" id="Fill-14" fill="#FEFEFE"/><g id="Group-18" transform="translate(231.461 1.13)"><mask id="mask-4" fill="#fff"><use xlink:href="#path-3"/></mask><path id="Fill-16" fill="#FEFEFE" mask="url(#mask-4)" d="M14.036 19.895v-7.567H5.267v7.567H.15V.097h5.118v7.479h8.769V.096h5.118v19.799z"/></g><g id="Group-21" transform="translate(0 .387)"><mask id="mask-6" fill="#fff"><use xlink:href="#path-5"/></mask><path d="M34.396 12.681l-.515.629-.029.041a4.44 4.44 0 0 1-3.559 1.763 4.448 4.448 0 0 1-3.226-1.37L18.83 4.526l-.703-.785-.056-.06-.02-.028-.01-.007A10.506 10.506 0 0 0 10.444.403C4.672.41.003 5.028 0 10.727c.003 5.703 4.672 10.32 10.443 10.323 3.3 0 6.257-1.523 8.16-3.888l-4.031-4.513-.536.66-.034.042a4.434 4.434 0 0 1-3.559 1.763c-2.45-.004-4.434-1.968-4.44-4.387.006-2.42 1.99-4.386 4.44-4.386 1.275 0 2.395.512 3.214 1.36l.674.755 8.287 9.27.046.049.02.022.012.01a10.477 10.477 0 0 0 7.597 3.243h.003c3.283 0 6.228-1.512 8.13-3.855l-4.03-4.514z" id="Fill-19" fill="#80BA27" mask="url(#mask-6)"/></g><path d="M26.134 9.16l.513-.63.028-.04a4.448 4.448 0 0 1 3.56-1.762 4.43 4.43 0 0 1 3.224 1.37l8.242 9.217.702.79.055.057.022.022.01.01a10.47 10.47 0 0 0 7.597 3.243c5.77-.003 10.44-4.618 10.443-10.323C60.527 5.414 55.856.796 50.087.792a10.484 10.484 0 0 0-8.163 3.89l4.033 4.513.54-.665.03-.04a4.452 4.452 0 0 1 3.56-1.762c2.45 0 4.434 1.966 4.439 4.386-.005 2.424-1.989 4.383-4.44 4.387a4.435 4.435 0 0 1-3.215-1.36l-.675-.755-8.283-9.27-.046-.047-.024-.023-.012-.012A10.477 10.477 0 0 0 30.235.792c-3.282 0-6.23 1.514-8.133 3.857l4.032 4.512z" id="Fill-22" fill="#FEFEFE"/></g></g></g></svg>
